icons/svg/education/language_school.svg

<?xml version="1.0" encoding="UTF-8" standalone="no"?>
<!-- Created with Inkscape (http://www.inkscape.org/) -->

<svg
   xmlns:dc="http://purl.org/dc/elements/1.1/"
   xmlns:cc="http://creativecommons.org/ns#"
   xmlns:rdf="http://www.w3.org/1999/02/22-rdf-syntax-ns#"
   xmlns:svg="http://www.w3.org/2000/svg"
   xmlns="http://www.w3.org/2000/svg"
   xmlns:sodipodi="http://sodipodi.sourceforge.net/DTD/sodipodi-0.dtd"
   xmlns:inkscape="http://www.inkscape.org/namespaces/inkscape"
   version="1.0"
   width="580"
   height="580"
   id="svg2"
   sodipodi:version="0.32"
   inkscape:version="0.91 r13725"
   sodipodi:docname="language_school.svg"
   inkscape:output_extension="org.inkscape.output.svg.inkscape">
  <metadata
     id="metadata2975">
    <rdf:RDF>
      <cc:Work
         rdf:about="">
        <dc:format>image/svg+xml</dc:format>
        <dc:type
           rdf:resource="http://purl.org/dc/dcmitype/StillImage" />
        <cc:license
           rdf:resource="http://web.resource.org/cc/PublicDomain" />
        <dc:language>en</dc:language>
        <dc:title />
      </cc:Work>
    </rdf:RDF>
  </metadata>
  <sodipodi:namedview
     inkscape:window-height="1006"
     inkscape:window-width="1920"
     inkscape:pageshadow="2"
     inkscape:pageopacity="0.0"
     guidetolerance="10.0"
     gridtolerance="10.0"
     objecttolerance="10.0"
     borderopacity="1.0"
     bordercolor="#666666"
     pagecolor="#ffffff"
     id="base"
     inkscape:zoom="0.46083856"
     inkscape:cx="-234.71703"
     inkscape:cy="311.81529"
     inkscape:window-x="1920"
     inkscape:window-y="0"
     inkscape:current-layer="svg2"
     showgrid="false"
     inkscape:window-maximized="1" />
  <defs
     id="defs4">
    <marker
       inkscape:stockid="Arrow1Lstart"
       orient="auto"
       refY="0.0"
       refX="0.0"
       id="marker5325"
       style="overflow:visible"
       inkscape:isstock="true">
      <path
         id="path5327"
         d="M 0.0,0.0 L 5.0,-5.0 L -12.5,0.0 L 5.0,5.0 L 0.0,0.0 z "
         style="fill-rule:evenodd;stroke:#ffffff;stroke-width:1pt;stroke-opacity:1;fill:#ffffff;fill-opacity:1"
         transform="scale(0.8) translate(12.5,0)" />
    </marker>
    <marker
       inkscape:stockid="Arrow1Lstart"
       orient="auto"
       refY="0.0"
       refX="0.0"
       id="marker5153"
       style="overflow:visible"
       inkscape:isstock="true">
      <path
         id="path5155"
         d="M 0.0,0.0 L 5.0,-5.0 L -12.5,0.0 L 5.0,5.0 L 0.0,0.0 z "
         style="fill-rule:evenodd;stroke:#ffffff;stroke-width:1pt;stroke-opacity:1;fill:#ffffff;fill-opacity:1"
         transform="scale(0.8) translate(12.5,0)" />
    </marker>
    <marker
       inkscape:stockid="Arrow2Lend"
       orient="auto"
       refY="0.0"
       refX="0.0"
       id="Arrow2Lend"
       style="overflow:visible;"
       inkscape:isstock="true">
      <path
         id="path4286"
         style="fill-rule:evenodd;stroke-width:0.625;stroke-linejoin:round;stroke:#ffffff;stroke-opacity:1;fill:#ffffff;fill-opacity:1"
         d="M 8.7185878,4.0337352 L -2.2072895,0.016013256 L 8.7185884,-4.0017078 C 6.9730900,-1.6296469 6.9831476,1.6157441 8.7185878,4.0337352 z "
         transform="scale(1.1) rotate(180) translate(1,0)" />
    </marker>
    <marker
       inkscape:stockid="Arrow1Lstart"
       orient="auto"
       refY="0.0"
       refX="0.0"
       id="marker4853"
       style="overflow:visible"
       inkscape:isstock="true">
      <path
         id="path4855"
         d="M 0.0,0.0 L 5.0,-5.0 L -12.5,0.0 L 5.0,5.0 L 0.0,0.0 z "
         style="fill-rule:evenodd;stroke:#ffffff;stroke-width:1pt;stroke-opacity:1;fill:#ffffff;fill-opacity:1"
         transform="scale(0.8) translate(12.5,0)" />
    </marker>
    <marker
       inkscape:stockid="Arrow1Lstart"
       orient="auto"
       refY="0.0"
       refX="0.0"
       id="marker4735"
       style="overflow:visible"
       inkscape:isstock="true">
      <path
         id="path4737"
         d="M 0.0,0.0 L 5.0,-5.0 L -12.5,0.0 L 5.0,5.0 L 0.0,0.0 z "
         style="fill-rule:evenodd;stroke:#ffffff;stroke-width:1pt;stroke-opacity:1;fill:#ffffff;fill-opacity:1"
         transform="scale(0.8) translate(12.5,0)" />
    </marker>
    <marker
       inkscape:stockid="Arrow1Lend"
       orient="auto"
       refY="0.0"
       refX="0.0"
       id="marker4671"
       style="overflow:visible;"
       inkscape:isstock="true">
      <path
         id="path4673"
         d="M 0.0,0.0 L 5.0,-5.0 L -12.5,0.0 L 5.0,5.0 L 0.0,0.0 z "
         style="fill-rule:evenodd;stroke:#ffffff;stroke-width:1pt;stroke-opacity:1;fill:#ffffff;fill-opacity:1"
         transform="scale(0.8) rotate(180) translate(12.5,0)" />
    </marker>
    <marker
       inkscape:stockid="DiamondLstart"
       orient="auto"
       refY="0.0"
       refX="0.0"
       id="DiamondLstart"
       style="overflow:visible"
       inkscape:isstock="true">
      <path
         id="path4353"
         d="M 0,-7.0710768 L -7.0710894,0 L 0,7.0710589 L 7.0710462,0 L 0,-7.0710768 z "
         style="fill-rule:evenodd;stroke:#ffffff;stroke-width:1pt;stroke-opacity:1;fill:#ffffff;fill-opacity:1"
         transform="scale(0.8) translate(7,0)" />
    </marker>
    <marker
       inkscape:stockid="Arrow1Lstart"
       orient="auto"
       refY="0.0"
       refX="0.0"
       id="Arrow1Lstart"
       style="overflow:visible"
       inkscape:isstock="true">
      <path
         id="path4265"
         d="M 0.0,0.0 L 5.0,-5.0 L -12.5,0.0 L 5.0,5.0 L 0.0,0.0 z "
         style="fill-rule:evenodd;stroke:#ffffff;stroke-width:1pt;stroke-opacity:1;fill:#ffffff;fill-opacity:1"
         transform="scale(0.8) translate(12.5,0)" />
    </marker>
    <marker
       inkscape:stockid="Arrow1Lend"
       orient="auto"
       refY="0.0"
       refX="0.0"
       id="Arrow1Lend"
       style="overflow:visible;"
       inkscape:isstock="true">
      <path
         id="path4268"
         d="M 0.0,0.0 L 5.0,-5.0 L -12.5,0.0 L 5.0,5.0 L 0.0,0.0 z "
         style="fill-rule:evenodd;stroke:#ffffff;stroke-width:1pt;stroke-opacity:1;fill:#ffffff;fill-opacity:1"
         transform="scale(0.8) rotate(180) translate(12.5,0)" />
    </marker>
    <inkscape:perspective
       sodipodi:type="inkscape:persp3d"
       inkscape:vp_x="0 : 290 : 1"
       inkscape:vp_y="0 : 1000 : 0"
       inkscape:vp_z="580 : 290 : 1"
       inkscape:persp3d-origin="290 : 193.33333 : 1"
       id="perspective2441" />
    <inkscape:perspective
       id="perspective3452"
       inkscape:persp3d-origin="30 : 20 : 1"
       inkscape:vp_z="60 : 30 : 1"
       inkscape:vp_y="0 : 1000 : 0"
       inkscape:vp_x="0 : 30 : 1"
       sodipodi:type="inkscape:persp3d" />
    <symbol
       viewBox="244.5 110 489 219.9"
       id="symbol-university">
      <path
         id="path4460"
         d="M79,43l57,119c0,0,21-96,104-96s124,106,124,106l43-133l82-17L0,17L79,43z" />
      <path
         id="path4462"
         d="M94,176l-21,39"
         stroke-width="20"
         stroke="#000000"
         fill="none" />
      <path
         id="path4464"
         d="M300,19c0,10.5-22.6,19-50.5,19S199,29.5,199,19s22.6-19,50.5-19S300,8.5,300,19z" />
      <path
         id="path4466"
         d="M112,216l-16-38L64,88c0,0-9-8-4-35s16-24,16-24"
         stroke-width="20"
         stroke="#000000"
         ill="none" />
    </symbol>
    <inkscape:perspective
       id="perspective4471"
       inkscape:persp3d-origin="372.04724 : 350.78739 : 1"
       inkscape:vp_z="744.09448 : 526.18109 : 1"
       inkscape:vp_y="0 : 1000 : 0"
       inkscape:vp_x="0 : 526.18109 : 1"
       sodipodi:type="inkscape:persp3d" />
    <inkscape:perspective
       id="perspective4668"
       inkscape:persp3d-origin="6 : 4 : 1"
       inkscape:vp_z="12 : 6 : 1"
       inkscape:vp_y="0 : 1000 : 0"
       inkscape:vp_x="0 : 6 : 1"
       sodipodi:type="inkscape:persp3d" />
    <marker
       viewBox="0 0 10 10"
       refY="5"
       refX="10"
       orient="auto"
       markerWidth="4"
       markerUnits="strokeWidth"
       markerHeight="3"
       id="ArrowStart">
      <path
         id="path3634"
         d="M 10 0 L 0 5 L 10 10 z" />
    </marker>
    <marker
       viewBox="0 0 10 10"
       refY="5"
       refX="0"
       orient="auto"
       markerWidth="4"
       markerUnits="strokeWidth"
       markerHeight="3"
       id="ArrowEnd">
      <path
         id="path3631"
         d="M 0 0 L 10 5 L 0 10 z" />
    </marker>
    <inkscape:perspective
       id="perspective2510"
       inkscape:persp3d-origin="306.082 : 204.39034 : 1"
       inkscape:vp_z="612.164 : 306.58551 : 1"
       inkscape:vp_y="0 : 1000 : 0"
       inkscape:vp_x="0 : 306.58551 : 1"
       sodipodi:type="inkscape:persp3d" />
    <marker
       viewBox="0 0 10 10"
       refY="5"
       refX="10"
       orient="auto"
       markerWidth="4"
       markerUnits="strokeWidth"
       markerHeight="3"
       id="marker2611">
      <path
         id="path1325"
         d="M 10 0 L 0 5 L 10 10 z" />
    </marker>
    <marker
       viewBox="0 0 10 10"
       refY="5"
       refX="0"
       orient="auto"
       markerWidth="4"
       markerUnits="strokeWidth"
       markerHeight="3"
       id="marker2608">
      <path
         id="path1322"
         d="M 0 0 L 10 5 L 0 10 z" />
    </marker>
    <inkscape:perspective
       id="perspective2605"
       inkscape:persp3d-origin="306.082 : 204.39034 : 1"
       inkscape:vp_z="612.164 : 306.58551 : 1"
       inkscape:vp_y="0 : 1000 : 0"
       inkscape:vp_x="0 : 306.58551 : 1"
       sodipodi:type="inkscape:persp3d" />
    <inkscape:perspective
       id="perspective2656"
       inkscape:persp3d-origin="372.04724 : 350.78739 : 1"
       inkscape:vp_z="744.09448 : 526.18109 : 1"
       inkscape:vp_y="0 : 1000 : 0"
       inkscape:vp_x="0 : 526.18109 : 1"
       sodipodi:type="inkscape:persp3d" />
    <inkscape:perspective
       id="perspective4707"
       inkscape:persp3d-origin="0.5 : 0.33333333 : 1"
       inkscape:vp_z="1 : 0.5 : 1"
       inkscape:vp_y="0 : 1000 : 0"
       inkscape:vp_x="0 : 0.5 : 1"
       sodipodi:type="inkscape:persp3d" />
    <clipPath
       id="clipoutline1"
       clipPathUnits="userSpaceOnUse">
      <path
         d="m 22.42,17.2 12.96,12.95 -2.5,8.78 -8.78,2.5 -12.96,-12.96 -5.86,5.86 14.89,21.46 17.56,-3.34 61.63,65.62 c 9.44,9.51 22.17,-4.75 13.34,-12.87 L 46.85,42.92 50.86,25.16 28.72,10.89 22.42,17.2 z m 81.06,91.97 c 1.68,-1.68 4.4,-1.68 6.08,0 1.68,1.68 1.68,4.4 0,6.08 -1.68,1.67 -4.4,1.67 -6.08,0 -1.68,-1.68 -1.68,-4.4 0,-6.08 z"
         id="outline1" />
    </clipPath>
    <inkscape:perspective
       id="perspective5296"
       inkscape:persp3d-origin="0.5 : 0.33333333 : 1"
       inkscape:vp_z="1 : 0.5 : 1"
       inkscape:vp_y="0 : 1000 : 0"
       inkscape:vp_x="0 : 0.5 : 1"
       sodipodi:type="inkscape:persp3d" />
    <clipPath
       id="clipoutline1-9"
       clipPathUnits="userSpaceOnUse">
      <path
         d="m 22.42,17.2 12.96,12.95 -2.5,8.78 -8.78,2.5 -12.96,-12.96 -5.86,5.86 14.89,21.46 17.56,-3.34 61.63,65.62 c 9.44,9.51 22.17,-4.75 13.34,-12.87 L 46.85,42.92 50.86,25.16 28.72,10.89 22.42,17.2 z m 81.06,91.97 c 1.68,-1.68 4.4,-1.68 6.08,0 1.68,1.68 1.68,4.4 0,6.08 -1.68,1.67 -4.4,1.67 -6.08,0 -1.68,-1.68 -1.68,-4.4 0,-6.08 z"
         id="outline1-7" />
    </clipPath>
  </defs>
  <g
     id="g1327">
    <path
       d="M 66.275,1.768 C 24.94,1.768 1.704,23.139 1.704,66.804 L 1.704,516.927 C 1.704,557.771 22.599,579.156 63.896,579.156 L 515.92,579.156 C 557.227,579.156 578.149,558.841 578.149,516.927 L 578.149,66.804 C 578.149,24.203 557.227,1.768 514.628,1.768 C 514.624,1.768 66.133,1.625 66.275,1.768 z"
       style="fill:#111111;stroke:#eeeeee;stroke-width:3.40799999"
       id="path1329" />
  </g>
  <path
     style="color:#000000;clip-rule:nonzero;display:inline;overflow:visible;visibility:visible;opacity:1;isolation:auto;mix-blend-mode:normal;color-interpolation:sRGB;color-interpolation-filters:linearRGB;solid-color:#000000;solid-opacity:1;fill:#ffffff;fill-opacity:1;fill-rule:nonzero;stroke:none;stroke-width:35;stroke-linecap:round;stroke-linejoin:miter;stroke-miterlimit:4;stroke-dasharray:none;stroke-dashoffset:0;stroke-opacity:1;marker:none;color-rendering:auto;image-rendering:auto;shape-rendering:auto;text-rendering:auto;enable-background:accumulate"
     d="m 413.97539,271.83381 c -77.87615,-6e-4 -141.00653,63.8176 -141.00678,142.54117 -5.9e-4,78.72416 63.13005,142.54177 141.00678,142.54117 38.06297,-1.2e-4 72.59896,-15.25132 97.96735,-40.03128 l 3.85786,-3.44675 c 1.94459,-3.51101 3.78224,-3.1179 5.51958,-6.64405 20.98736,-24.88624 33.66225,-57.15391 33.66199,-92.41909 -1.5e-4,-53.93935 -29.64117,-100.87713 -73.3528,-125.0876 -0.70626,-0.83435 -1.40755,-0.32373 -2.12743,-1.16018 l -2.2246,-1.14619 c -19.03634,-9.6852 -40.53686,-15.14714 -63.30195,-15.1472 z m -2.50769,53.23449 c 0.9895,-0.005 1.98526,0.007 2.97339,0.0423 6.76467,-0.10349 13.69007,0.26739 20.31445,1.18705 31.03418,4.28135 57.91766,30.42208 61.61507,62.03155 4.45328,24.86445 -3.44191,53.02964 -25.50906,67.15399 l 31.41562,0 0,30.8075 c -0.0484,0.034 -0.0956,0.0695 -0.14407,0.10338 l -71.77482,0 0,-33.15451 c 24.15873,-15.85867 31.55216,-50.43881 19.89567,-76.34393 -8.11464,-23.53108 -41.68279,-29.5472 -58.76734,-12.57495 -22.40428,25.15778 -16.69199,70.54007 11.6037,88.91888 l 0,33.15451 -75.3814,0 c -0.36529,-0.35101 -0.72324,-0.7106 -1.07544,-1.07698 l 0,-29.83381 c 0,0 30.13047,0.63263 35.19809,-0.46568 -25.64802,-17.05508 -31.24366,-52.82467 -21.3631,-80.45034 9.34603,-30.46487 40.32456,-49.33416 70.99924,-49.49891 z"
     id="path4211"
     inkscape:connector-curvature="0"
     sodipodi:nodetypes="ssscccscccsccccccccccccccccccccc" />
  <path
     style="color:#000000;clip-rule:nonzero;display:inline;overflow:visible;visibility:visible;opacity:1;isolation:auto;mix-blend-mode:normal;color-interpolation:sRGB;color-interpolation-filters:linearRGB;solid-color:#000000;solid-opacity:1;fill:#ffffff;fill-opacity:1;fill-rule:nonzero;stroke:none;stroke-width:35;stroke-linecap:round;stroke-linejoin:miter;stroke-miterlimit:4;stroke-dasharray:none;stroke-dashoffset:0;stroke-opacity:1;marker:none;color-rendering:auto;image-rendering:auto;shape-rendering:auto;text-rendering:auto;enable-background:accumulate"
     d="M 176.27831,28.48994 C 95.859795,28.489327 30.66822,93.67922 30.667974,174.09776 c -6.12e-4,80.41911 65.191235,145.61096 145.610336,145.61034 39.30559,-1.2e-4 74.96968,-15.57865 101.16626,-40.89212 l 4.69041,-4.82366 c 3.24394,-3.2335 1.7852,-1.35218 4.99169,-5.48392 21.67251,-25.42203 34.76226,-58.38619 34.76199,-94.41064 -1.6e-4,-55.10069 -30.60955,-103.047614 -75.7482,-127.779336 -0.72931,-0.852311 -1.20371,-0.205262 -1.94709,-1.059721 l -2.54563,-1.29723 C 221.98995,34.06774 199.7866,28.490004 176.27831,28.48994 Z m -23.11703,48.652054 52.51166,0 63.26419,170.799566 -44.27375,0 -10.75505,-31.11594 -68.86801,0 -10.86948,31.11594 -44.271196,0 z m 26.31304,40.040376 -23.45265,67.95268 46.79089,0 z"
     id="path4211-6"
     inkscape:connector-curvature="0"
     sodipodi:nodetypes="ssscccscccsccccccccccccc" />
  <path
     style="fill:#ffffff;fill-opacity:1;stroke:#ffffff;stroke-width:10.03930569;stroke-linecap:round;stroke-linejoin:round;stroke-miterlimit:4;stroke-dasharray:none;stroke-opacity:1"
     d="m 51.047204,441.06658 c 19.76263,-23.0098 39.508891,-46.02221 59.266386,-69.03283 30.42322,10.63204 60.86252,21.25111 91.26811,31.89749 l -43.15068,11.53031 c 11.0607,43.73186 41.01377,91.13339 91.72705,114.56042 -103.23426,3.33676 -148.0234,-54.38813 -160.374705,-97.33518 l -40.936991,10.93879 z"
     id="path8535"
     inkscape:connector-curvature="0"
     sodipodi:nodetypes="cccccccc" />
  <path
     style="fill:#ffffff;fill-opacity:1;stroke:#ffffff;stroke-width:10.03930569;stroke-linecap:round;stroke-linejoin:round;stroke-miterlimit:4;stroke-dasharray:none;stroke-opacity:1"
     d="m 541.99512,153.51013 c -19.76264,23.0098 -39.50889,46.02221 -59.26639,69.03283 -30.42324,-10.63204 -60.86254,-21.25111 -91.26813,-31.89749 l 43.15068,-11.53031 C 423.55058,135.3833 393.59751,87.981774 342.88423,64.554744 446.11849,61.217984 490.90765,118.94287 503.25895,161.88992 l 40.93699,-10.93879 z"
     id="path8535-5"
     inkscape:connector-curvature="0"
     sodipodi:nodetypes="cccccccc" />
</svg>

<svg width="580" height="580" viewBox="0 0 580 580" fill="none" xmlns="http://www.w3.org/2000/svg">
<g clip-path="url(#clip0)">
<path d="M66.2751 1.76799C24.9401 1.76799 1.7041 23.139 1.7041 66.804V516.927C1.7041 557.771 22.5991 579.156 63.8961 579.156H515.92C557.227 579.156 578.149 558.841 578.149 516.927V66.804C578.149 24.203 557.227 1.76799 514.628 1.76799C514.624 1.76799 66.1331 1.62499 66.2751 1.76799Z" fill="#111111" stroke="#EEEEEE" stroke-width="3.408"/>
<path d="M413.975 271.834C336.099 271.833 272.969 335.651 272.969 414.375C272.968 493.099 336.099 556.917 413.975 556.916C452.038 556.916 486.574 541.665 511.943 516.885L515.801 513.438C517.745 509.927 519.583 510.32 521.32 506.794C542.307 481.908 554.982 449.64 554.982 414.375C554.982 360.436 525.341 313.498 481.629 289.287C480.923 288.453 480.222 288.964 479.502 288.127L477.277 286.981C458.241 277.296 436.74 271.834 413.975 271.834ZM411.468 325.068C412.457 325.063 413.453 325.075 414.441 325.111C421.206 325.007 428.131 325.378 434.755 326.298C465.79 330.579 492.673 356.72 496.371 388.329C500.824 413.194 492.929 441.359 470.861 455.483H502.277V486.291C502.229 486.325 502.181 486.36 502.133 486.394H430.358V453.24C454.517 437.381 461.91 402.801 450.254 376.896C442.139 353.365 408.571 347.348 391.487 364.321C369.082 389.478 374.795 434.861 403.09 453.24V486.394H327.709C327.344 486.043 326.986 485.683 326.633 485.317V455.483C326.633 455.483 356.764 456.116 361.831 455.018C336.183 437.963 330.588 402.193 340.468 374.567C349.814 344.102 380.793 325.233 411.468 325.068V325.068Z" fill="white"/>
<path d="M176.278 28.4899C95.8598 28.4893 30.6682 93.6792 30.668 174.098C30.6674 254.517 95.8592 319.709 176.278 319.708C215.584 319.708 251.248 304.129 277.445 278.816L282.135 273.992C285.379 270.759 283.92 272.64 287.127 268.508C308.799 243.086 321.889 210.122 321.889 174.098C321.889 118.997 291.279 71.0501 246.14 46.3184C245.411 45.4661 244.937 46.1131 244.193 45.2587L241.648 43.9615C221.99 34.0677 199.787 28.49 176.278 28.4899ZM153.161 77.142H205.673L268.937 247.942H224.663L213.908 216.826H145.04L134.171 247.942H89.8996L153.161 77.142ZM179.474 117.182L156.022 185.135H202.813L179.474 117.182Z" fill="white"/>
<path d="M51.0473 441.067C70.8099 418.057 90.5562 395.044 110.314 372.034C140.737 382.666 171.176 393.285 201.582 403.931L158.431 415.462C169.492 459.193 199.445 506.595 250.158 530.022C146.924 533.359 102.135 475.634 89.7834 432.687L48.8464 443.626L51.0473 441.067Z" fill="white" stroke="white" stroke-width="10.0393" stroke-linecap="round" stroke-linejoin="round"/>
<path d="M541.995 153.51C522.233 176.52 502.486 199.532 482.729 222.543C452.306 211.911 421.866 201.292 391.461 190.645L434.611 179.115C423.551 135.383 393.598 87.9818 342.884 64.5547C446.119 61.218 490.908 118.943 503.259 161.89L544.196 150.951L541.995 153.51Z" fill="white" stroke="white" stroke-width="10.0393" stroke-linecap="round" stroke-linejoin="round"/>
</g>
<defs>
<clipPath id="clip0">
<path d="M0 0H580V580H0V0Z" fill="white"/>
</clipPath>
</defs>
</svg>
